X: 1
T: Ve David
O: I Samuel 18:7
Z: 1997 by John Chambers <jc:trillian.mit.edu>
K: Dphr
M: 4/4
L: 1/8
K: Am
"Intro"\
|: "Em"E2 E2 "D"D2 EF | "Em"G2 A2 GA GF | E2 E2 "D"DD =CD | "Em"E8 :|
w: Ve Da-vid ye-*fe ey-na-*yim,* hu' ro-'e ba-sho-sha-nim.
|: "E"EB Bc Bc BA | "Dm"^GA GF ED "E"E2 :|
w: Ve Da-vid ye-fe ey-na-yim, hu' ro-'e ba-sho-sha-nim.
E/ | "Am"EA AA BA "E"B2 | EB Bd "Am"c/B/A "E"B2 |
w: Hi-ka Sha-ul be-a-la-fav, ve Da-vid be-ri-ve-vo-tav.
| "Dm"^GG G2 A2 GF | "E"E8 | "E"[^GB][GB] [G2B2] "Dm"[A2c2] [GB][FA] | "E"[B8E8G8] |]
w: Ben yi-shai chai ve-kay-yam.  Ben yi-shai chai ve-kay-yam.
W:
W: And David was pleasing to the eyes, a shepherd among the flowers.
W: Saul killed thousands, and David tens of thousands.
W: His sons will live and prosper.

%%sep 1 1 500

